src/icons/icons_set_01/016-bulle.svg

<svg height="50" viewBox="0 0 50 50" width="50" xmlns="http://www.w3.org/2000/svg"><g transform="translate(2.995 3.802885)"><path d="m43.531635 34.3665298c.7147691 1.9522798.4179945 3.6070746-.4494604 4.8355146-.8773422 1.2358989-2.3096886 1.9572337-3.8179745 1.926411-.758456-.0101437-1.5083211-.1620843-2.1986965-.4431079l-4.4403061-1.7392009c-8.5293716 5.4720268-19.7872837 4.0990876-26.74961643-3.3332554-7.08356874-7.5617633-7.6181693-19.1513726-1.26081114-27.3331332 6.35735817-8.18176064 17.71973557-10.52722879 26.79722557-5.5315923 8.9701791 4.93657976 13.0781927 15.5938079 9.7867979 25.2520194l2.0899734 5.710147zm-4.4588688-6.356161.1229948-.3415741c3.1771004-8.8232629-.5321883-18.64698861-8.7480501-23.16844314-8.2158617-4.52145454-18.499731-2.39861642-24.25365362 5.00653783-5.75392264 7.40515421-5.27006595 17.89468671 1.14113592 24.73869341 6.4112018 6.8440065 16.8468279 8.0111045 24.6115594 2.752504l.4355976-.2950049.4898564.1918693 4.9349166 1.9330251c.4715299.1918769.9747935.2938501 1.4908647.300777.8530685.0174189 1.6594215-.3886634 2.1518897-1.0823906.4840931-.685548.6649788-1.6108768.2594522-2.8324737z"/><path d="m31.2498929 21.2455885c.0054535.8976135-.5310586 1.709879-1.3587854 2.0571662-.8277265.3472871-1.7831952.1610082-2.4198467-.4717753-.6366513-.6327835-.8287492-1.5870993-.4865125-2.4169269.3422367-.8298277 1.1512178-1.3712795 2.0488479-1.3712961 1.2187879-.0000225 2.2088922.9840667 2.2162967 2.2028321z"/><path d="m23.0821795 21.2455885c.0074136 1.2239938-.9788116 2.2222509-2.2028053 2.2296795-1.2239937.0074287-2.222263-.9787842-2.2297067-2.2027778-.0074437-1.2239937.9787569-2.222275 2.2027504-2.2297338.5878018-.0035819 1.1529504.2264918 1.5711142.6396052.4181638.4131135.6550871.975425.6586474 1.5632269z"/><path d="m14.8848436 21.2455885c.0054542.8978585-.531349 1.7102955-1.3594073 2.0574254-.8280583.34713-1.7837399.160357-2.4201801-.4729861-.6364402-.6333432-.8278728-1.5881024-.4847862-2.4178441.3430865-.8297417 1.1528953-1.3705017 2.0507697-1.3694273 1.2183454-.0000144 2.2076752.9845012 2.2136039 2.2028321z"/></g></svg>

<?xml version="1.0" encoding="UTF-8"?>
<svg width="50px" height="50px" viewBox="0 0 50 50" version="1.1" xmlns="http://www.w3.org/2000/svg" xmlns:xlink="http://www.w3.org/1999/xlink">
    <!-- Generator: Sketch 52.4 (67378) - http://www.bohemiancoding.com/sketch -->
    <title>016-bulle</title>
    <desc>Created with Sketch.</desc>
    <g id="016-bulle" stroke="none" stroke-width="1" fill="none" fill-rule="evenodd">
        <g id="Group" transform="translate(2.995000, 3.802885)" fill="#000000" fill-rule="nonzero">
            <g id="015-bulle-02">
                <g id="ICONSET-01">
                    <g id="015-bulle-02">
                        <path d="M43.531635,34.3665298 C44.2464041,36.3188096 43.9496295,37.9736044 43.0821746,39.2020444 C42.2048324,40.4379433 40.772486,41.1592781 39.2642001,41.1284554 C38.5057441,41.1183117 37.755879,40.9663711 37.0655036,40.6853475 L32.6251975,38.9461466 C24.0958259,44.4181734 12.8379138,43.0452342 5.87558107,35.6128912 C-1.20798767,28.0511279 -1.74258823,16.4615186 4.61476993,8.279758 C10.9721281,0.0979973578 22.3345055,-2.24747079 31.4119955,2.7481657 C40.3821746,7.68474546 44.4901882,18.3419736 41.1987934,28.0001851 L43.2887668,33.7103321 L43.531635,34.3665298 Z M39.0727662,28.0103688 L39.195761,27.6687947 C42.3728614,18.8455318 38.6635727,9.02180609 30.4477109,4.50035156 C22.2318492,-0.0211029826 11.9479799,2.10173514 6.19405728,9.50688939 C0.440134639,16.9120436 0.923991331,27.4015761 7.3351932,34.2455828 C13.746395,41.0895893 24.1820211,42.2566873 31.9467526,36.9980868 L32.3823502,36.7030819 L32.8722066,36.8949512 L37.8071232,38.8279763 C38.2786531,39.0198532 38.7819167,39.1218264 39.2979879,39.1287533 C40.1510564,39.1461722 40.9574094,38.7400899 41.4498776,38.0463627 C41.9339707,37.3608147 42.1148564,36.4354859 41.7093298,35.213889 L39.0727662,28.0103688 Z" id="Shape"></path>
                        <path d="M31.2498929,21.2455885 C31.2553464,22.143202 30.7188343,22.9554675 29.8911075,23.3027547 C29.063381,23.6500418 28.1079123,23.4637629 27.4712608,22.8309794 C26.8346095,22.1981959 26.6425116,21.2438801 26.9847483,20.4140525 C27.326985,19.5842248 28.1359661,19.042773 29.0335962,19.0427564 C30.2523841,19.0427339 31.2424884,20.0268231 31.2498929,21.2455885 Z" id="Shape"></path>
                        <path d="M23.0821795,21.2455885 C23.0895931,22.4695823 22.1033679,23.4678394 20.8793742,23.475268 C19.6553805,23.4826967 18.6571112,22.4964838 18.6496675,21.2724902 C18.6422238,20.0484965 19.6284244,19.0502152 20.8524179,19.0427564 C21.4402197,19.0391745 22.0053683,19.2692482 22.4235321,19.6823616 C22.8416959,20.0954751 23.0786192,20.6577866 23.0821795,21.2455885 Z" id="Shape"></path>
                        <path d="M14.8848436,21.2455885 C14.8902978,22.143447 14.3534946,22.955884 13.5254363,23.3030139 C12.697378,23.6501439 11.7416964,23.4633709 11.1052562,22.8300278 C10.468816,22.1966846 10.2773834,21.2419254 10.62047,20.4121837 C10.9635565,19.582442 11.7733653,19.041682 12.6712397,19.0427564 C13.8895851,19.042742 14.8789149,20.0272576 14.8848436,21.2455885 Z" id="Shape"></path>
                    </g>
                </g>
            </g>
        </g>
    </g>
</svg>
